X:1
T:Amalfi, 87.87 D
T:Amalfi, 87.87 D
T:James M. Sawers, 1886
T:Public Domain Courtesy of the Cyber Hymnal™
C:James M. Sawers, 1886
Z:Public Domain
Z:Courtesy of the Cyber Hymnal™
%%score ( 1 2 ) ( 3 4 )
L:1/8
Q:1/4=94
M:3/4
K:Bb
V:1 treble 
V:2 treble 
V:3 bass 
V:4 bass 
V:1
 [DF]>[DF] | [DB]3 [DB] [CA]>[DB] | [Fd]2 [DF]2 [FB]>[FA] | [EG]3 [EA] [EB]>[=Ec] | %4
 [Fc]4 [Ge]>[Fd] | [Ec]3 [EB] [EA]>[EG] | [EG] [DF]3 [FB]>[Gc] | [Fd] [Ge]3 [Fd]>[Ec] | %8
 [DB]4 [DB]>[DB] | [DB]3 [DB] [DA][DG] | [DA]2 D2 [DG]>[DA] | [DB]3 [DA] [DB]>[Fc] | %12
 [Fd]4 [Fd]>[Fd] | [^Fd]3 [Ac] [GB]>[EG] | [EG] [DF]3 [FB]>[Gc] | [Fd]>[Fc] !fermata![Ff]3 [EA] | %16
 [DB]4 |] %17
V:2
 x2 | x6 | x6 | x6 | x6 | x6 | x6 | x6 | x6 | x6 | x2 D2 x2 | x6 | x6 | x6 | x6 | x6 | x4 |] %17
V:3
 [B,,B,]>[B,,B,] | [B,,F,]3 [B,,F,] [B,,F,]>[B,,F,] | [B,,B,]2 [B,,B,]2 [D,B,]>[D,B,] | %3
 [E,B,]3 [E,B,] [E,G,]>[C,G,] | [F,A,]4 [F,A,]>[F,A,] | [F,A,]3 [F,B,] [F,C]>[F,A,] | %6
 [B,,B,] [B,,B,]3 [D,B,]>[E,B,] | [F,B,] [F,B,]3 [F,A,]>[F,A,] | [B,,B,]4 [B,,F,]>[B,,F,] | %9
 [G,,G,]3 [G,,G,] [A,,^F,][B,,G,] | [D,^F,]2 F,2 [B,,G,]>[D,F,] | G,3 [D,^F,] G,>[=F,A,] | %12
 [B,,B,]4 [B,,B,]>[B,,B,] | [D,A,]3 [D,^F,] [E,G,]>[E,B,] | [B,,B,] [B,,B,]3 [D,B,]>[E,B,] | %15
 [F,B,]>[F,A,] [F,A,]3 [F,C] | [B,,B,]4 |] %17
V:4
 x2 | x6 | x6 | x6 | x6 | x6 | x6 | x6 | x6 | x6 | x2 (D,C,) x2 | G,3 G,3/2 x3/2 | x6 | x6 | x6 | %15
 x6 | x4 |] %17

